X:1
T:The Roll Call Here
T:R. Hayes Willis
T:The Roll Call Here
T:Public Domain
T:Public Domain
T:Public Domain
C:R. Hayes Willis
Z:Public Domain
%%score ( 1 2 ) ( 3 4 )
L:1/8
M:4/4
K:Bb
V:1 treble 
V:2 treble 
V:3 bass 
V:4 bass 
V:1
 [Fd]>[Ec] | [DB]>[DF] [B,D]>[DF] [DB]>[CA] [DB]>[D=B] | [Ec]>[EG] [EG]>[EG] [=Ec]2 [Ec]>[EB] | %3
w: 1.~Hear the|or- der of the Cap- tain call- ing,|time will soon be o’er, Ma- ny|
w: 2.~See the|ea- ger hosts of Sa- tan gath- ’ring|round on ev- ery hand; For our|
w: 3.~When we|meet for cor- o- na- tion of the|faith- ful o- ver there, Shall the|
w: 4.~Time for|shout- ing and re- joic- ing when the|vic- to- ry is won, When God’s|
 [_EA]>[E^G] [EA]>[DB] [Ec]>[D=B] [Ec]>[E^c] | [Fd]6 [Fd]>[Ec] | %5
w: sol- diers He must have from far and|near; There are|
w: sons and daugh- ters they are fierce and|strong; “To the|
w: Sav- ior, sit- ting on His judg- ment|throne, Say, “I|
w: ris- en saints are wait- ing in the|air, But the|
 [DB]>[DF] [B,D]>[DF] [DB]>[CA] [DB]>[D=B] | [Ec]>[EG] [EG]>[EG] [=Ec]2 [Ec]>[EB] | %7
w: souls in sin and dark- ness, and for|them the cross He bore; Come, my|
w: cen- ter, ral- ly! ral- ly!” hear the|voice of Christ’s com- mand, An- swer|
w: know you not, de- sert- er, you are|not a right- ful heir, For My|
w: time is now for ac- tion, and hard|fight- ing must be done, Ere the|
 [_EA]>[E^G] [EA]>[DB] [Ec]>[D=B] [Fd]>[Ec] | [DB]6 ||"^Refrain" [Fd]>[Ec] | %10
w: com- rade, now fall in and an- swer|“Here!”||
w: “Here!” and vol- un- teer to fight the|wrong.|Vol- un-|
w: lost and hun- gry ones you left a-|lone.”||
w: roll is called up yon- der, o- ver|there.||
 [DB]2 [B,D]>[CE] [DF]2 [FB]>[FB] | .c z .G z .c z [Fc]>[DB] | [EA]2 [EA]>[DB] [Ec]2 [Fd]>[Fc] | %13
w: |||
w: teer, vol- un- teer, an- swer,|“Here! here! here!” Quick- ly|clear, “I am here! here! here!”|
w: |||
w: |||
 .B z .D z .F z [Fd]>[Ec] | [DB]>[DF] [B,D]>[DF] [DB]2 [CA]>[DB] | %15
w: ||
w: ’Tis the Cap- tain’s great|ly step and ral- ly near, For|
w: ||
w: ||
 [Ec]>[EG] [EG]>[EG] [=Ec]2 [Ec]>[EB] | [_EA]>[E^G] [EA]>[DB] [Ec]>[D=B] [Fd]>[Ec] | (D2 E>E D2) |] %18
w: |||
w: the bat- tle rag- es o- ver|all the land. * * * * *||
w: |||
w: |||
V:2
 x2 | x8 | x8 | x8 | x8 | x8 | x8 | x8 | x6 || x2 | x8 | cGc x5 | x8 | BDF x5 | x8 | x8 | x8 | %17
w: |||||||||||||||||
w: |||||||||||speak loud and||com- mand, Quick-||||
 B6 |] %18
w: |
w: |
V:3
 [B,,B,]>[B,,B,] | [B,,F,]>[B,,F,] [B,,F,]>[B,,F,] [B,,F,]>[B,,F,] [B,,F,]>[B,,F,] | %2
 [E,G,]>[E,C] [E,C]>[E,C] [C,G,]2 [C,G,]>[C,C] | %3
 [F,C]>[F,=B,] [F,C]>[F,_B,] [F,A,]>[F,^G,] [F,A,]>[F,A,] | [B,,B,]6 [B,,B,]>[B,,B,] | %5
 [B,,F,]>[B,,F,] [B,,F,]>[B,,F,] [B,,F,]>[B,,F,] [B,,F,]>[B,,F,] | %6
 [E,G,]>[E,C] [E,C]>[E,C] [C,G,]2 [C,G,]>[C,C] | %7
 [F,C]>[F,=B,] [F,C]>[F,_B,] [F,A,]>[F,^G,] [F,B,]>[F,A,] | [B,,B,]6 || [B,,B,]>[B,,B,] | %10
 [B,,F,]2 [B,,F,]>[B,,F,] [B,,B,]2 [B,D]>[B,D] | .C z .G, z .C z [F,A,]>[F,B,] | %12
 [F,C]2 [F,C]>[F,B,] [F,A,]2 [F,B,]>[F,A,] | .B, z .D, z .F, z [B,,B,]>[B,,B,] | %14
 [B,,F,]>[B,,F,] [B,,F,]>[B,,F,] [B,,F,]2 [B,,F,]>[B,,F,] | %15
 [E,G,]>[E,C] [E,C]>[E,C] [C,G,]2 [C,G,]>[C,C] | %16
 [F,C]>[F,=B,] [F,C]>[F,_B,] [F,A,]>[F,^G,] [F,B,]>[F,A,] | (B,2 G,>G, F,2) |] %18
V:4
 x2 | x8 | x8 | x8 | x8 | x8 | x8 | x8 | x6 || x2 | x8 | CG,C x5 | x8 | B,D,F, x5 | x8 | x8 | x8 | %17
 B,,6 |] %18

